svg/fluentui-system-icons/ic_fluent_battery_1_24_filled.svg

<svg width="24" height="24" viewBox="0 0 24 24" fill="none" xmlns="http://www.w3.org/2000/svg">
<path d="M17 6C18.6569 6 20 7.34315 20 9V10H21.0003C21.1824 10 21.3532 10.0487 21.5003 10.1338C21.7992 10.3067 22.0003 10.6299 22.0003 11V13C22.0003 13.3701 21.7992 13.6933 21.5003 13.8662C21.3532 13.9513 21.1824 14 21.0003 14H20V15C20 16.6569 18.6569 18 17 18H4.99963C3.34278 18 1.99963 16.6569 1.99963 15V9C1.99963 7.34315 3.34278 6 4.99963 6H17ZM6.99996 9H5.99804C5.44576 9 4.99804 9.44772 4.99804 10V14C4.99804 14.5523 5.44575 15 5.99804 15H6.99996C7.55224 15 7.99996 14.5523 7.99996 14V10C7.99996 9.44772 7.55225 9 6.99996 9Z" fill="#212121"/>
</svg>

<svg xmlns="http://www.w3.org/2000/svg" width="24" height="24"><path d="M17 6a3 3 0 0 1 3 3v1h1a1 1 0 0 1 1 1v2a1 1 0 0 1-1 1h-1v1a3 3 0 0 1-3 3H5a3 3 0 0 1-3-3V9a3 3 0 0 1 3-3h12ZM7 9H5.998a1 1 0 0 0-1 1v4a1 1 0 0 0 1 1H7a1 1 0 0 0 1-1v-4a1 1 0 0 0-1-1Z"/></svg>
